!!!OTL: Nobody Knows the Trouble I've Seen
!!!COM: unknown
!!!ODT: unknown
!!!YOR: The Folksong Fake Book
!!!YOY: 2000
!!!AST: Spiritual
!!!YEC: Brian Luke, 2001
**kern	**harm
*k[f#c#g#d#]	*k[f#c#g#d#]
*M4/4	*M4/4
*E:	*E:
*>A	*>A
=1	=1
8g#	I
4B	.
8c#	.
4.e	IV
8f#	.
=2	=2
8g#	I
8g#	.
4g#	.
2g#	.
=3	=3
8g#	.
4B	.
8c#	.
4e	IV
4e	.
=4	=4
4c#	V7
2.B	.
*>A'	*>A'
=5	=5
8g#	I
4B	.
8c#	.
4.e	IV
8f#	.
=6	=6
8g#	I
8g#	.
4g#	.
2g#	.
=7	=7
4.b	.
8g#	.
4f#	V7
4g#	.
=8	=8
2e	I;
4e	.
*>B	*>B
4g#	.
=9	=9
4b	I
4b	.
4b	.
4g#	.
=10	=10
4b	.
4b	.
2g#	.
=11	=11
2b	.
2g#	.
=12	=12
2.f#	V7
*>B'	*>B'
4g#	.
=13	=13
4b	I
4b	.
4b	.
4g#	.
=14	=14
4b	.
4b	.
8g#	.
8f#	.
4e	.
=15	=15
2g#	.
2f#	V7
=16	=16
2.e	I;
4r	.
*-	*-
